X:1
T:Thueringer V
C:traditionell
R:
A:Grevesmuehlen, Mecklenburg
F:http://simonwascher.info/
Z:abc transcription Simon Wascher 28Dez02
M:2/4
L:1/8
K:C
G |\
cc/c/ ce | g3 (e/f/ | g)(e/f/ g)(e/f/ | g3) (f/g/ |\
a)d d(e/f/ | g)c c(d/e/ | f).G.B.d | c2z :|
|: (d/e/ |\ 
f)dBG | cege | fda>g | g3(e/f/ |\
g)GBd | ceGe | fGBd | e2 z :|
K:F
|: c |\
(Ac)(cf) | f3a | g2ec | a2fc |\
(Ac)(cf) | f3a | gcde | f2 z :| 
K:C
|: G |\
EG (cB) | Ac(fe) | dGAB | ceg2 |\
EG(cB) | Ac(fe) | dGAB | c2z :|
K:F
|: c |\
ff/f/ ff | efg2 | ecde | fga2 |\
ff/f/ ff | efg2 | ecde | f2z :| 
 %%wordsfont Times-Italic 11pt
W:aus Simon Waschers TradArchiv

